X: 12
T: Julen har bragt velsignet Bud [G]
C: C.E.F.Weyse
O: Danmark
Z: John Chambers <jc@trillian.mit.edu>
M: 6/8
L: 1/8
K: G
| "G"[BG][GD][BG] [d2G2][BG] \
| "C"[G2E2]"D"[AF] "G"[B2G2]G \
| "C"[e2G2][eG] "G"[dG]>[cA][BG] \
| "D"[A3F3] D2 ","[dF] \
| "G"[BG][GD][BG] "Bm"[d2F2][BF] \
| "Em"[G2E2]"D"[AF] "G"[B2G2][dF] \
| "D"[AD]>B[AD] "Bm"[dF]>^c[dF] \
| "A7"[e3G3] "D"[d2F2]z |
| "D"[AD]>[GE][AF] "G"[B2G2][B=F] \
| "Am"[c2E2]"D7"[A^F] "G"[B2G2]G \
| "C"[c2E2][BD] "Am"[AC]>[BD][AE] \
| "D"[A3D3] D2 ","[dA] \
| "G"[dB][BG][cA] [d2B2][BG] \
| "D7"[AF][cA][BG] [A2F2][dA] \
| "G"[BG]"C"[cG][ec] "G"[dB]>[cA][BG] \
| "D7"[B2D2][AC] "G"[G2B,2]z |]
